X: 43029
T: Willy's Single
R: jig
M: 6/8
K: Dmajor
F2D D3 FED FED|F2A ABA G2E E3|
E3 GFE F2D D3|1 Bcd ecA ded dcA|2 Bcd ecA ded d2g||
f2d d2c d2f afd|ecA A3 ecA AcA/A/|
f2d d2c d2f afd|ecA ABc d3 d2e|
f2d d2c d2f afd|ecA A3 ecA AcA/A/|
f3 fef g3 gfg|a2f g2e f2d cAG||

